actions/16/archive-insert.svg

<svg viewBox="0 0 16 16" xmlns="http://www.w3.org/2000/svg"><style type="text/css" id="current-color-scheme">.ColorScheme-Text{color:#eff0f1;}</style><g style="fill:currentColor;fill-opacity:1;stroke:none" class="ColorScheme-Text"><path d="m2 2v12h7v-1h-6v-10h5v1h1v-1h4v6h1v-7zm6 2h-1v1h1zm0 1v1h1v-1zm0 1h-1v1 1h2v-1h-1z"/><path d="m11 9v2h-2v1h2v2h1v-2h2v-1h-2v-2z"/></g></svg>

<svg viewBox="0 0 16 16" xmlns="http://www.w3.org/2000/svg"><style type="text/css" id="current-color-scheme">.ColorScheme-Text{color:#fcfcfc;}</style><g style="fill:currentColor;fill-opacity:1;stroke:none" class="ColorScheme-Text"><path d="M 2,3.9867444 C 2,3.9867444 2,10 2,12 c 0,2 2,2 2,2 H 9 V 13 H 4 C 4,13 3,13 3,12 3,11 3,4 3,4 3,3 4,3 4,3 H 8 V 4 H 9 V 3 h 3.002696 C 12.002696,3 13,3 13,4 v 5 h 1 V 4.0610733 C 14,2 12,2 12,2 H 4 C 4,2 2,2 2,3.9867444 Z M 8,4 H 7 V 5 H 8 Z M 8,5 V 6 H 9 V 5 Z M 8,6 H 7 V 7 8 H 9 V 7 H 8 Z"/><path d="m11 9v2h-2v1h2v2h1v-2h2v-1h-2v-2z"/></g></svg>
